X: 1893
T: Around The World For Sport
R: jig
M: 6/8
K: Eminor
EF|:"Em"G2G GFG|"D"A2A AGA|"G"B2B BAG|"Bm"B2E E2F|
"Em"G2G GFG|"D"A2A ABc|"Bm"dcB AGF|1 G2E E2F:|2 G2E E2f||
"Em"g2e e2f|g2e e2f|"A"g2e a2g|"D"f2d def|
"Em"gfe a2f|gfe d2B|"Bm"A2B cBA|1 G2E E2f:|2 G2E E2F||

